X: 06035
T: JIMBO'S JIG
C: Bob McQuillen 16 Nov 82
B: Bob's Note Book 6 #35
%R: jig
Z: 2021 John Chambers <jc:trillian.mit.edu>
M: 6/8
L: 1/8
K: G
GE \
| DEG ABA | GBd d2g | egg ded | BdB AGE |\
| DEG ABA | GBd e2d | egg ded | BGG G :|
|: Bd \
| egg deg | bgb age | deg aba | gee ege |\
| deg gba | gee ege | ded BdB | AGG G :|
%%begintext align
%% Jim Weston
%% is another one of my happy school
%% kids who is such a pleasure to know.
%% Best wishes always to you, Jimbo, and
%% love from MAC [squiggle]
%%endtext

%%sep 1 1 500

%%sep 1 1 500

